X:1
T:Claude Goudimel, 1568
T:Psalm 23 
%%score { 1 | ( 2 3 ) } 4
L:1/8
Q:1/4=120
M:none
K:F
V:1 treble nm="Midi_58"
V:2 bass 
V:3 bass 
V:4 bass nm="Midi_59"
V:1
 G4 G2 G2 D4 D4 | F2 G2 A2 G2 F4 G4 | z4 B4 A4 G4 | F4 D4 F2 G2 A2 G2 | F4 G4 z4 d4 | %5
 d2 d2 G4 c4 c2 B2 | A2 G2 F4 D2 G2 G2 F2 | G4 F4 G2 F2 G2 A2 | B4 A4 z4 B4 | A2 G2 F4 D4 F2 F2 | %10
 G2 F2 E4 D4 z4 | d4 c2 B2 A4 F4 | G2 B2 c2 B2 A4 G4- | G16 |] %14
V:2
 z4 G,4 B,2 B,2 G,2 D2 | D2 B,2 F2 D2 D4 B,4 | _E4 D4 C4 B,A,B,C | D2 D2 F4 D2 E2 F2 D2- | %4
 DC/B,/ A,2"^," B,2 D2 D2 E2 FEDC | B,8 G4 G2 F2 | E2 E2 D4 B,2 D2 _E2 D2 | D2 D4 D2 B,2 D4 F2 | %8
 D2 B,2 z4 F4 G2 F2 | F2 E2 D3 C B,A, B,2 A,2 D2 | E2 D3 ^C/=B,/ C2 D4 z4 | z2 D2 F2 G2 E4 z2 A,2 | %12
 B,CDB, F2 G2 E2 F2 D3 C/B,/ | _E4 D12 |] %14
V:3
 z8 G,4 B,2 B,2 | A,2 G,2 D2 B,2 A,2 A,2 G,A, B,2- | B,A,/G,/ A,2 B,4 z4 z2 G,2 | %3
 A,2 B,2 F,2 B,2 A,2 C4 B,2 | A,2 D2- DCB,A, B,4 A,4 | z2 D2 D2 D2 G,4 C4 | %6
 C2 B,2 A,2 A,2 G,2 D,2 z2 A,2 | B,2 B,2 A,2 A,2 G,2 A,2 G,2 F,2 | B,G, D3 C/B,/ C2 D2 D2 _E2 D2 | %9
 C4 A,4 G,2 G,2 F,G,A,F, | C2 D2 A,4 D,2 D2 =C2 _B,2 | A,4 z4 z2 C2 D2 D2 | %12
 G,2 G,2 A,2 B,2 C2 D2 B,2 A,G, | C4 =B,12 |] %14
V:4
 z8 z2 G,,2 G,,A,,B,,C, | D,2 _E,2 D,2 G,,2 D,2 D,2 E,3 D, | C,4 B,,4 z2 F,2 G,2 _E,2 | %3
 D,2 B,,2 B,,A,,B,,C, D,2 C,2 F,2 G,2 | D,4"^," G,,2 G,2 G,2 G,2 D,4 | G,4 G,2 F,2 E,2 D,2 C,4- | %6
 C,4 D,4 z2 B,,2 C,2 D,2 | G,,A,,B,,C, D,2 D,2 _E,2 D,2 B,2 A,2 | G,4 F,2 F,2 B,2 B,2 _E,2 B,,2 | %9
 F,2 C,2 D,2 D,2 G,,4 D,4 | z8 z2 D,2 F,2 G,2 | D,4 z2 G,2 A,2 A,2 D,4 | %12
 z4 z2 G,2 A,2 F,2 G,2 G,2 | C,4 G,,12 |] %14

